X: 87
T:The Grey Cuckoo
M:3/4
L:1/8
Q:150
S:Michael Raven (Hynde Horn)
A:Wales
Z:brian_martin12345@yahoo.com
K:Em
G2|F2B,2G2|F2E2G>A|B>c B>AF2|E4G2|F2B,2G2|F2E2G>A|B>c B>A F2|E4||]!
B>^c|d2e2d2|^c2B2B>c|d2e2d>^c|B4G2|F2B,2G2|F2E2G>A|B>c B>AF2|E4||

